src/images/stampTiles.svg

<?xml version="1.0" encoding="UTF-8" standalone="no"?>
<!-- Created with Inkscape (http://www.inkscape.org/) -->

<svg
   xmlns:dc="http://purl.org/dc/elements/1.1/"
   xmlns:cc="http://creativecommons.org/ns#"
   xmlns:rdf="http://www.w3.org/1999/02/22-rdf-syntax-ns#"
   xmlns:svg="http://www.w3.org/2000/svg"
   xmlns="http://www.w3.org/2000/svg"
   version="142.0"
   width="142"
   height="142"
   id="svg2">
  <defs
     id="defs4" />
  <metadata
     id="metadata7">
    <rdf:RDF>
      <cc:Work
         rdf:about="">
        <dc:format>image/svg+xml</dc:format>
        <dc:type
           rdf:resource="http://purl.org/dc/dcmitype/StillImage" />
        <dc:title></dc:title>
      </cc:Work>
    </rdf:RDF>
  </metadata>
  <g
     id="layer1">
    <path
       d="M 25,0 C 25,13.807119 13.807119,25 0,25 L 0,46 C 13.807119,46 25,57.192881 25,71 25,84.807119 13.807119,96 0,96 l 0,21 c 13.807119,0 25,11.19288 25,25 l 21,0 c 0,-13.80712 11.192881,-25 25,-25 13.807119,0 25,11.19288 25,25 l 21,0 c 0,-13.80712 11.19288,-25 25,-25 l 0,-21 c -13.80712,0 -25,-11.192881 -25,-25 0,-13.807119 11.19288,-25 25,-25 l 0,-21 C 128.19288,25 117,13.807119 117,0 L 96,0 C 96,13.807119 84.807119,25 71,25 57.192881,25 46,13.807119 46,0 L 25,0 z"
       id="rect2985"
       style="fill:#000000;fill-opacity:1;fill-rule:evenodd;stroke:none" />
    <path
       d="m 35.848848,-12.466359 0,171.863599"
       id="path3892"
       style="fill:none;stroke:#ff0000;stroke-width:1;stroke-linecap:butt;stroke-linejoin:miter;stroke-miterlimit:4;stroke-opacity:1;stroke-dasharray:2, 1;stroke-dashoffset:0" />
    <path
       d="m 107.01935,-11.939171 0,170.282031"
       id="path3916"
       style="fill:none;stroke:#ff0000;stroke-width:1;stroke-linecap:butt;stroke-linejoin:miter;stroke-miterlimit:4;stroke-opacity:1;stroke-dasharray:2, 1;stroke-dashoffset:0" />
    <path
       d="m -10.543779,36.562212 167.118899,0"
       id="path3918"
       style="fill:none;stroke:#ff0000;stroke-width:1;stroke-linecap:butt;stroke-linejoin:miter;stroke-miterlimit:4;stroke-opacity:1;stroke-dasharray:2, 1;stroke-dashoffset:0" />
    <path
       d="m -11.598157,105.09677 c 166.591707,0 167.118897,0 167.118897,0"
       id="path3922"
       style="fill:none;stroke:#ff0000;stroke-width:1;stroke-linecap:butt;stroke-linejoin:miter;stroke-miterlimit:4;stroke-opacity:1;stroke-dasharray:2, 1;stroke-dashoffset:0" />
  </g>
</svg>

<svg xmlns="http://www.w3.org/2000/svg" version="142" width="142" height="142"><path d="M25 0c0 13.807-11.193 25-25 25v21c13.807 0 25 11.193 25 25S13.807 96 0 96v21c13.807 0 25 11.193 25 25h21c0-13.807 11.193-25 25-25s25 11.193 25 25h21c0-13.807 11.193-25 25-25V96c-13.807 0-25-11.193-25-25s11.193-25 25-25V25c-13.807 0-25-11.193-25-25H96c0 13.807-11.193 25-25 25S46 13.807 46 0H25z" fill-rule="evenodd"/><path d="M35.849-12.466v171.863M107.02-11.94v170.283M-10.544 36.562h167.12M-11.598 105.097H155.52" fill="none" stroke="red" stroke-dasharray="2,1"/></svg>
